X:131
T:Brays of Dornoch. JJo8.131
B:J.Johnson Choice Collection Vol 8 1758
Z:vmp.Simon Wilson 2013 www.village-music-project.org.uk
M:C|
L:1/4
Q:1/2=90
K:G
|:D|G2g2|dBAG|c/d/eee|e2ge|dBAG|B2AG|F/G/AAA|
A3D|G2ge|dBAG|cdef|g3f/e/|dedB|AdBG|E/F/GGG|G3:|
|:G/A/|B2BG|g2gb|dBAG|e2dc|B2Bd|g2gb|dBAG|A2BA|
GFEF|G2AB|cdef|g3f/e/|dedg|dBAG|E/F/GGG|G3:|
